icons/bg.svg

<?xml version="1.0" ?>
<svg xmlns="http://www.w3.org/2000/svg" xmlns:ev="http://www.w3.org/2001/xml-events" xmlns:xlink="http://www.w3.org/1999/xlink" baseProfile="full" height="400px" version="1.1" viewBox="-1029.12 1023.88 12298.24 8182.24" width="600px">
	<defs/>
	<path d="M 690.0,8460.0 C 690.0,8403.0 688.0,8398.0 629.0,8321.0 C 583.0,8261.0 548.0,8228.0 491.0,8190.0 C 419.0,8144.0 409.0,8140.0 352.0,8140.0 L 291.0,8140.0 L 245.0,7993.0 C 219.0,7911.0 183.0,7796.0 164.0,7735.0 L 129.0,7625.0 L 176.0,7497.0 L 222.0,7369.0 L 279.0,7333.0 C 310.0,7313.0 338.0,7293.0 341.0,7288.0 C 344.0,7283.0 353.0,7202.0 360.0,7110.0 L 373.0,6941.0 L 421.0,6882.0 C 465.0,6827.0 473.0,6821.0 519.0,6815.0 C 567.0,6809.0 572.0,6805.0 673.0,6692.0 C 763.0,6590.0 778.0,6569.0 784.0,6530.0 C 789.0,6494.0 808.0,6462.0 881.0,6368.0 C 962.0,6263.0 973.0,6252.0 993.0,6259.0 C 1023.0,6271.0 1120.0,6232.0 1131.0,6205.0 C 1145.0,6169.0 1140.0,6116.0 1121.0,6083.0 C 1105.0,6057.0 1087.0,6047.0 1016.0,6024.0 L 930.0,5996.0 L 908.0,5938.0 L 885.0,5880.0 L 829.0,5869.0 C 754.0,5854.0 683.0,5794.0 661.0,5727.0 C 652.0,5702.0 625.0,5656.0 600.0,5626.0 L 555.0,5571.0 L 470.0,5568.0 C 344.0,5565.0 327.0,5565.0 305.0,5573.0 C 287.0,5579.0 279.0,5570.0 245.0,5500.0 C 207.0,5422.0 206.0,5419.0 217.0,5365.0 C 228.0,5317.0 225.0,5286.0 190.0,5079.0 L 151.0,4847.0 L 221.0,4781.0 L 290.0,4715.0 L 284.0,4613.0 L 277.0,4510.0 L 204.0,4465.0 C 133.0,4421.0 130.0,4417.0 114.0,4361.0 L 98.0,4302.0 L 67.0,4311.0 C 7.0,4328.0 0.0,4325.0 0.0,4274.0 C 0.0,4230.0 4.0,4223.0 84.0,4136.0 C 155.0,4060.0 175.0,4029.0 210.0,3950.0 C 233.0,3898.0 257.0,3850.0 263.0,3843.0 C 270.0,3837.0 390.0,3786.0 530.0,3730.0 C 670.0,3674.0 788.0,3625.0 792.0,3622.0 C 796.0,3618.0 802.0,3554.0 805.0,3480.0 C 812.0,3345.0 812.0,3345.0 860.0,3244.0 C 892.0,3176.0 917.0,3136.0 938.0,3122.0 C 962.0,3105.0 975.0,3080.0 1000.0,3007.0 L 1031.0,2915.0 L 949.0,2840.0 L 868.0,2765.0 L 875.0,2658.0 C 882.0,2560.0 880.0,2546.0 860.0,2497.0 C 838.0,2444.0 838.0,2441.0 854.0,2394.0 C 875.0,2332.0 874.0,2321.0 845.0,2221.0 C 831.0,2174.0 820.0,2131.0 820.0,2124.0 C 820.0,2117.0 876.0,2102.0 968.0,2085.0 C 1049.0,2071.0 1123.0,2056.0 1132.0,2054.0 C 1145.0,2050.0 1157.0,2064.0 1182.0,2115.0 C 1210.0,2171.0 1220.0,2182.0 1250.0,2190.0 C 1304.0,2205.0 1313.0,2202.0 1343.0,2160.0 C 1359.0,2138.0 1378.0,2120.0 1386.0,2120.0 C 1394.0,2120.0 1460.0,2138.0 1533.0,2161.0 L 1665.0,2201.0 L 1917.0,2199.0 C 2127.0,2197.0 2173.0,2199.0 2187.0,2212.0 C 2197.0,2220.0 2244.0,2243.0 2292.0,2264.0 C 2340.0,2285.0 2386.0,2311.0 2396.0,2321.0 C 2405.0,2331.0 2416.0,2340.0 2420.0,2340.0 C 2423.0,2340.0 2436.0,2311.0 2449.0,2276.0 L 2471.0,2212.0 L 2528.0,2201.0 C 2580.0,2191.0 2589.0,2192.0 2652.0,2217.0 C 2712.0,2240.0 2719.0,2246.0 2714.0,2264.0 C 2710.0,2276.0 2701.0,2304.0 2694.0,2327.0 L 2681.0,2370.0 L 2723.0,2398.0 L 2765.0,2427.0 L 2808.0,2409.0 C 2850.0,2391.0 2851.0,2391.0 2922.0,2417.0 L 2993.0,2444.0 L 3034.0,2399.0 L 3075.0,2354.0 L 3121.0,2363.0 C 3161.0,2372.0 3174.0,2370.0 3224.0,2347.0 L 3282.0,2320.0 L 3341.0,2361.0 C 3393.0,2396.0 3406.0,2401.0 3448.0,2398.0 L 3495.0,2395.0 L 3517.0,2275.0 C 3529.0,2209.0 3542.0,2145.0 3545.0,2133.0 C 3549.0,2115.0 3561.0,2110.0 3628.0,2099.0 C 3708.0,2086.0 3724.0,2076.0 3777.0,2008.0 C 3808.0,1967.0 3850.0,1978.0 3893.0,2039.0 C 3923.0,2080.0 3935.0,2088.0 3990.0,2103.0 L 4053.0,2121.0 L 4104.0,2071.0 C 4146.0,2030.0 4176.0,2013.0 4271.0,1975.0 L 4388.0,1929.0 L 4420.0,1867.0 C 4438.0,1833.0 4475.0,1784.0 4503.0,1757.0 L 4552.0,1710.0 L 4716.0,1710.0 C 4911.0,1710.0 4970.0,1723.0 5103.0,1795.0 L 5190.0,1842.0 L 5278.0,1836.0 C 5341.0,1831.0 5408.0,1835.0 5520.0,1850.0 C 5724.0,1876.0 5710.0,1878.0 5710.0,1830.0 C 5710.0,1808.0 5711.0,1790.0 5713.0,1790.0 C 5714.0,1790.0 5803.0,1814.0 5910.0,1844.0 L 6105.0,1897.0 L 6122.0,1965.0 C 6132.0,2003.0 6151.0,2051.0 6166.0,2073.0 L 6192.0,2113.0 L 6161.0,2184.0 C 6131.0,2253.0 6130.0,2259.0 6132.0,2380.0 C 6136.0,2536.0 6131.0,2552.0 6080.0,2575.0 C 6044.0,2591.0 6040.0,2597.0 6040.0,2629.0 C 6040.0,2649.0 6044.0,2670.0 6048.0,2676.0 C 6052.0,2682.0 6109.0,2705.0 6176.0,2727.0 L 6297.0,2767.0 L 6403.0,2725.0 L 6509.0,2682.0 L 6524.0,2705.0 C 6532.0,2718.0 6544.0,2749.0 6551.0,2774.0 C 6557.0,2800.0 6566.0,2823.0 6571.0,2826.0 C 6576.0,2829.0 6628.0,2843.0 6687.0,2858.0 L 6793.0,2885.0 L 6827.0,2964.0 C 6854.0,3028.0 6860.0,3054.0 6860.0,3115.0 L 6860.0,3187.0 L 6921.0,3228.0 L 6983.0,3268.0 L 7052.0,3244.0 L 7122.0,3220.0 L 7176.0,3259.0 L 7230.0,3298.0 L 7323.0,3274.0 C 7373.0,3261.0 7422.0,3250.0 7430.0,3250.0 C 7438.0,3250.0 7510.0,3307.0 7589.0,3375.0 C 7668.0,3444.0 7740.0,3500.0 7749.0,3500.0 C 7758.0,3500.0 7836.0,3507.0 7923.0,3515.0 C 8112.0,3532.0 8120.0,3530.0 8149.0,3454.0 C 8160.0,3425.0 8196.0,3361.0 8228.0,3313.0 C 8287.0,3226.0 8288.0,3225.0 8356.0,3201.0 C 8394.0,3188.0 8460.0,3158.0 8502.0,3134.0 C 8544.0,3110.0 8582.0,3090.0 8585.0,3090.0 C 8588.0,3090.0 8590.0,3103.0 8590.0,3118.0 C 8590.0,3146.0 8596.0,3149.0 8708.0,3192.0 L 8825.0,3237.0 L 8895.0,3213.0 L 8964.0,3190.0 L 9005.0,3229.0 L 9045.0,3268.0 L 9096.0,3249.0 C 9145.0,3230.0 9148.0,3230.0 9201.0,3248.0 C 9233.0,3260.0 9256.0,3274.0 9258.0,3284.0 C 9260.0,3293.0 9243.0,3321.0 9221.0,3348.0 C 9135.0,3446.0 9100.0,3503.0 9100.0,3540.0 C 9100.0,3570.0 9091.0,3585.0 9040.0,3635.0 C 9007.0,3668.0 8980.0,3699.0 8980.0,3706.0 C 8980.0,3712.0 8951.0,3736.0 8916.0,3760.0 C 8880.0,3784.0 8849.0,3812.0 8847.0,3821.0 C 8844.0,3831.0 8825.0,3843.0 8801.0,3850.0 C 8761.0,3861.0 8760.0,3861.0 8776.0,3885.0 C 8784.0,3898.0 8798.0,3911.0 8806.0,3914.0 C 8814.0,3917.0 8820.0,3926.0 8820.0,3935.0 C 8820.0,3943.0 8834.0,3963.0 8851.0,3978.0 L 8882.0,4006.0 L 8864.0,4042.0 L 8847.0,4079.0 L 8813.0,4065.0 C 8774.0,4049.0 8777.0,4045.0 8760.0,4135.0 C 8742.0,4230.0 8742.0,4230.0 8706.0,4230.0 C 8657.0,4230.0 8613.0,4248.0 8595.0,4276.0 C 8583.0,4294.0 8571.0,4300.0 8542.0,4300.0 C 8522.0,4300.0 8498.0,4305.0 8490.0,4310.0 C 8480.0,4316.0 8469.0,4313.0 8452.0,4298.0 L 8430.0,4276.0 L 8387.0,4296.0 C 8346.0,4316.0 8343.0,4316.0 8288.0,4299.0 C 8232.0,4283.0 8230.0,4283.0 8230.0,4300.0 C 8230.0,4324.0 8255.0,4348.0 8286.0,4356.0 C 8299.0,4359.0 8310.0,4366.0 8310.0,4371.0 C 8310.0,4375.0 8277.0,4395.0 8238.0,4414.0 L 8165.0,4450.0 L 8211.0,4450.0 C 8237.0,4450.0 8273.0,4444.0 8291.0,4436.0 C 8370.0,4404.0 8367.0,4403.0 8399.0,4474.0 C 8415.0,4510.0 8432.0,4540.0 8436.0,4540.0 C 8440.0,4540.0 8460.0,4535.0 8481.0,4528.0 C 8517.0,4518.0 8522.0,4519.0 8545.0,4540.0 C 8558.0,4552.0 8570.0,4572.0 8572.0,4584.0 C 8574.0,4598.0 8584.0,4606.0 8600.0,4609.0 C 8632.0,4613.0 8640.0,4626.0 8640.0,4672.0 C 8640.0,4735.0 8655.0,4760.0 8692.0,4760.0 C 8749.0,4760.0 8767.0,4770.0 8786.0,4812.0 L 8804.0,4853.0 L 8885.0,4846.0 C 8929.0,4843.0 8992.0,4837.0 9024.0,4834.0 L 9083.0,4827.0 L 9077.0,4946.0 C 9074.0,5012.0 9064.0,5088.0 9055.0,5117.0 C 9041.0,5165.0 9041.0,5172.0 9056.0,5210.0 C 9070.0,5245.0 9072.0,5274.0 9066.0,5403.0 C 9060.0,5540.0 9061.0,5561.0 9079.0,5620.0 C 9091.0,5656.0 9100.0,5692.0 9100.0,5700.0 C 9100.0,5708.0 9107.0,5729.0 9116.0,5745.0 C 9157.0,5822.0 9190.0,5887.0 9199.0,5913.0 C 9210.0,5940.0 9208.0,5942.0 9157.0,5965.0 C 9117.0,5984.0 9088.0,5990.0 9033.0,5990.0 C 8993.0,5990.0 8937.0,5995.0 8908.0,6002.0 L 8855.0,6014.0 L 8950.0,6023.0 C 9012.0,6028.0 9057.0,6028.0 9081.0,6021.0 C 9147.0,6001.0 9220.0,6007.0 9260.0,6035.0 C 9289.0,6055.0 9301.0,6075.0 9327.0,6147.0 C 9345.0,6196.0 9364.0,6254.0 9370.0,6277.0 C 9378.0,6311.0 9389.0,6324.0 9431.0,6351.0 C 9459.0,6368.0 9488.0,6394.0 9497.0,6407.0 C 9510.0,6426.0 9521.0,6430.0 9565.0,6430.0 C 9594.0,6430.0 9647.0,6439.0 9682.0,6450.0 C 9761.0,6475.0 9777.0,6475.0 9817.0,6450.0 C 9835.0,6440.0 9872.0,6428.0 9900.0,6424.0 C 9928.0,6420.0 9970.0,6405.0 9995.0,6389.0 L 10039.0,6361.0 L 10051.0,6403.0 C 10059.0,6430.0 10082.0,6465.0 10116.0,6500.0 C 10144.0,6530.0 10184.0,6588.0 10204.0,6627.0 C 10237.0,6694.0 10240.0,6707.0 10240.0,6787.0 C 10240.0,6836.0 10235.0,6891.0 10229.0,6910.0 C 10223.0,6929.0 10215.0,6998.0 10211.0,7062.0 C 10208.0,7126.0 10202.0,7181.0 10199.0,7184.0 C 10197.0,7187.0 10009.0,7220.0 9783.0,7258.0 L 9371.0,7327.0 L 9275.0,7400.0 C 9169.0,7481.0 9170.0,7480.0 9116.0,7627.0 C 9070.0,7750.0 9071.0,7750.0 8889.0,7750.0 L 8761.0,7750.0 L 8699.0,7825.0 L 8637.0,7900.0 L 8436.0,7900.0 L 8234.0,7900.0 L 8178.0,7968.0 C 8077.0,8090.0 7944.0,8140.0 7713.0,8140.0 C 7628.0,8140.0 7615.0,8137.0 7516.0,8096.0 C 7345.0,8024.0 7039.0,7941.0 6945.0,7940.0 C 6923.0,7940.0 6874.0,7932.0 6836.0,7922.0 C 6773.0,7906.0 6760.0,7905.0 6698.0,7919.0 L 6630.0,7933.0 L 6538.0,7897.0 C 6487.0,7877.0 6407.0,7851.0 6360.0,7839.0 C 6313.0,7827.0 6270.0,7812.0 6263.0,7806.0 C 6257.0,7800.0 6243.0,7773.0 6232.0,7746.0 L 6213.0,7696.0 L 6109.0,7673.0 C 6018.0,7653.0 6001.0,7645.0 5968.0,7613.0 C 5932.0,7578.0 5930.0,7572.0 5930.0,7516.0 C 5930.0,7441.0 5901.0,7399.0 5826.0,7366.0 C 5779.0,7345.0 5769.0,7335.0 5724.0,7259.0 C 5676.0,7178.0 5672.0,7174.0 5620.0,7157.0 C 5550.0,7134.0 5385.0,7110.0 5295.0,7110.0 C 5231.0,7110.0 5219.0,7106.0 5155.0,7069.0 L 5085.0,7027.0 L 5019.0,7038.0 C 4976.0,7046.0 4924.0,7065.0 4868.0,7095.0 C 4743.0,7161.0 4691.0,7176.0 4556.0,7185.0 C 4459.0,7191.0 4425.0,7197.0 4367.0,7221.0 C 4287.0,7254.0 4249.0,7256.0 4154.0,7234.0 C 4054.0,7211.0 3973.0,7222.0 3915.0,7267.0 C 3890.0,7286.0 3834.0,7323.0 3790.0,7351.0 C 3712.0,7399.0 3709.0,7400.0 3632.0,7400.0 L 3553.0,7400.0 L 3520.0,7351.0 C 3492.0,7311.0 3473.0,7296.0 3411.0,7267.0 C 3347.0,7237.0 3318.0,7230.0 3227.0,7221.0 L 3120.0,7212.0 L 3042.0,7255.0 C 2951.0,7306.0 2784.0,7366.0 2684.0,7384.0 C 2626.0,7394.0 2595.0,7408.0 2521.0,7454.0 C 2458.0,7494.0 2410.0,7517.0 2366.0,7527.0 C 2302.0,7541.0 2301.0,7541.0 2262.0,7515.0 L 2222.0,7489.0 L 2085.0,7565.0 L 1948.0,7642.0 L 1822.0,7646.0 C 1752.0,7649.0 1594.0,7647.0 1470.0,7643.0 C 1245.0,7635.0 1245.0,7635.0 1147.0,7662.0 C 1071.0,7683.0 1036.0,7698.0 995.0,7730.0 L 941.0,7771.0 L 971.0,7837.0 C 993.0,7887.0 1000.0,7917.0 1000.0,7966.0 C 1000.0,8027.0 1001.0,8030.0 1028.0,8035.0 C 1043.0,8038.0 1094.0,8053.0 1142.0,8067.0 C 1211.0,8088.0 1237.0,8102.0 1266.0,8131.0 L 1302.0,8168.0 L 1285.0,8219.0 L 1268.0,8270.0 L 1193.0,8270.0 C 1122.0,8270.0 1116.0,8272.0 1077.0,8305.0 C 1049.0,8329.0 1005.0,8350.0 937.0,8372.0 C 853.0,8400.0 828.0,8414.0 772.0,8462.0 C 735.0,8494.0 702.0,8519.0 698.0,8520.0 C 693.0,8520.0 690.0,8493.0 690.0,8460.0" fill="pink"/>
</svg>

<?xml version="1.0" standalone="no"?>
<!DOCTYPE svg PUBLIC "-//W3C//DTD SVG 20010904//EN"
 "http://www.w3.org/TR/2001/REC-SVG-20010904/DTD/svg10.dtd">
<svg version="1.0" xmlns="http://www.w3.org/2000/svg"
 width="1024.000000pt" height="1024.000000pt" viewBox="0 0 1024.000000 1024.000000"
 preserveAspectRatio="xMidYMid meet">
<metadata>
Created by potrace 1.10, written by Peter Selinger 2001-2011
</metadata>
<g transform="translate(0.000000,1024.000000) scale(0.100000,-0.100000)"
fill="#000000" stroke="none">
<path d="M690 8460 c0 -57 -2 -62 -61 -139 -46 -60 -81 -93 -138 -131 -72 -46
-82 -50 -139 -50 l-61 0 -46 -147 c-26 -82 -62 -197 -81 -258 l-35 -110 47
-128 46 -128 57 -36 c31 -20 59 -40 62 -45 3 -5 12 -86 19 -178 l13 -169 48
-59 c44 -55 52 -61 98 -67 48 -6 53 -10 154 -123 90 -102 105 -123 111 -162 5
-36 24 -68 97 -162 81 -105 92 -116 112 -109 30 12 127 -27 138 -54 14 -36 9
-89 -10 -122 -16 -26 -34 -36 -105 -59 l-86 -28 -22 -58 -23 -58 -56 -11 c-75
-15 -146 -75 -168 -142 -9 -25 -36 -71 -61 -101 l-45 -55 -85 -3 c-126 -3
-143 -3 -165 5 -18 6 -26 -3 -60 -73 -38 -78 -39 -81 -28 -135 11 -48 8 -79
-27 -286 l-39 -232 70 -66 69 -66 -6 -102 -7 -103 -73 -45 c-71 -44 -74 -48
-90 -104 l-16 -59 -31 9 c-60 17 -67 14 -67 -37 0 -44 4 -51 84 -138 71 -76
91 -107 126 -186 23 -52 47 -100 53 -107 7 -6 127 -57 267 -113 140 -56 258
-105 262 -108 4 -4 10 -68 13 -142 7 -135 7 -135 55 -236 32 -68 57 -108 78
-122 24 -17 37 -42 62 -115 l31 -92 -82 -75 -81 -75 7 -107 c7 -98 5 -112 -15
-161 -22 -53 -22 -56 -6 -103 21 -62 20 -73 -9 -173 -14 -47 -25 -90 -25 -97
0 -7 56 -22 148 -39 81 -14 155 -29 164 -31 13 -4 25 10 50 61 28 56 38 67 68
75 54 15 63 12 93 -30 16 -22 35 -40 43 -40 8 0 74 18 147 41 l132 40 252 -2
c210 -2 256 0 270 13 10 8 57 31 105 52 48 21 94 47 104 57 9 10 20 19 24 19
3 0 16 -29 29 -64 l22 -64 57 -11 c52 -10 61 -9 124 16 60 23 67 29 62 47 -4
12 -13 40 -20 63 l-13 43 42 28 42 29 43 -18 c42 -18 43 -18 114 8 l71 27 41
-45 41 -45 46 9 c40 9 53 7 103 -16 l58 -27 59 41 c52 35 65 40 107 37 l47 -3
22 -120 c12 -66 25 -130 28 -142 4 -18 16 -23 83 -34 80 -13 96 -23 149 -91
31 -41 73 -30 116 31 30 41 42 49 97 64 l63 18 51 -50 c42 -41 72 -58 167 -96
l117 -46 32 -62 c18 -34 55 -83 83 -110 l49 -47 164 0 c195 0 254 13 387 85
l87 47 88 -6 c63 -5 130 -1 242 14 204 26 190 28 190 -20 0 -22 1 -40 3 -40 1
0 90 24 197 54 l195 53 17 68 c10 38 29 86 44 108 l26 40 -31 71 c-30 69 -31
75 -29 196 4 156 -1 172 -52 195 -36 16 -40 22 -40 54 0 20 4 41 8 47 4 6 61
29 128 51 l121 40 106 -42 106 -43 15 23 c8 13 20 44 27 69 6 26 15 49 20 52
5 3 57 17 116 32 l106 27 34 79 c27 64 33 90 33 151 l0 72 61 41 62 40 69 -24
70 -24 54 39 54 39 93 -24 c50 -13 99 -24 107 -24 8 0 80 57 159 125 79 69
151 125 160 125 9 0 87 7 174 15 189 17 197 15 226 -61 11 -29 47 -93 79 -141
59 -87 60 -88 128 -112 38 -13 104 -43 146 -67 42 -24 80 -44 83 -44 3 0 5 13
5 28 0 28 6 31 118 74 l117 45 70 -24 69 -23 41 39 40 39 51 -19 c49 -19 52
-19 105 -1 32 12 55 26 57 36 2 9 -15 37 -37 64 -86 98 -121 155 -121 192 0
30 -9 45 -60 95 -33 33 -60 64 -60 71 0 6 -29 30 -64 54 -36 24 -67 52 -69 61
-3 10 -22 22 -46 29 -40 11 -41 11 -25 35 8 13 22 26 30 29 8 3 14 12 14 21 0
8 14 28 31 43 l31 28 -18 36 -17 37 -34 -14 c-39 -16 -36 -20 -53 70 -18 95
-18 95 -54 95 -49 0 -93 18 -111 46 -12 18 -24 24 -53 24 -20 0 -44 5 -52 10
-10 6 -21 3 -38 -12 l-22 -22 -43 20 c-41 20 -44 20 -99 3 -56 -16 -58 -16
-58 1 0 24 25 48 56 56 13 3 24 10 24 15 0 4 -33 24 -72 43 l-73 36 46 0 c26
0 62 -6 80 -14 79 -32 76 -33 108 38 16 36 33 66 37 66 4 0 24 -5 45 -12 36
-10 41 -9 64 12 13 12 25 32 27 44 2 14 12 22 28 25 32 4 40 17 40 63 0 63 15
88 52 88 57 0 75 10 94 52 l18 41 81 -7 c44 -3 107 -9 139 -12 l59 -7 -6 119
c-3 66 -13 142 -22 171 -14 48 -14 55 1 93 14 35 16 64 10 193 -6 137 -5 158
13 217 12 36 21 72 21 80 0 8 7 29 16 45 41 77 74 142 83 168 11 27 9 29 -42
52 -40 19 -69 25 -124 25 -40 0 -96 5 -125 12 l-53 12 95 9 c62 5 107 5 131
-2 66 -20 139 -14 179 14 29 20 41 40 67 112 18 49 37 107 43 130 8 34 19 47
61 74 28 17 57 43 66 56 13 19 24 23 68 23 29 0 82 9 117 20 79 25 95 25 135
0 18 -10 55 -22 83 -26 28 -4 70 -19 95 -35 l44 -28 12 42 c8 27 31 62 65 97
28 30 68 88 88 127 33 67 36 80 36 160 0 49 -5 104 -11 123 -6 19 -14 88 -18
152 -3 64 -9 119 -12 122 -2 3 -190 36 -416 74 l-412 69 -96 73 c-106 81 -105
80 -159 227 -46 123 -45 123 -227 123 l-128 0 -62 75 -62 75 -201 0 -202 0
-56 68 c-101 122 -234 172 -465 172 -85 0 -98 -3 -197 -44 -171 -72 -477 -155
-571 -156 -22 0 -71 -8 -109 -18 -63 -16 -76 -17 -138 -3 l-68 14 -92 -36
c-51 -20 -131 -46 -178 -58 -47 -12 -90 -27 -97 -33 -6 -6 -20 -33 -31 -60
l-19 -50 -104 -23 c-91 -20 -108 -28 -141 -60 -36 -35 -38 -41 -38 -97 0 -75
-29 -117 -104 -150 -47 -21 -57 -31 -102 -107 -48 -81 -52 -85 -104 -102 -70
-23 -235 -47 -325 -47 -64 0 -76 -4 -140 -41 l-70 -42 -66 11 c-43 8 -95 27
-151 57 -125 66 -177 81 -312 90 -97 6 -131 12 -189 36 -80 33 -118 35 -213
13 -100 -23 -181 -12 -239 33 -25 19 -81 56 -125 84 -78 48 -81 49 -158 49
l-79 0 -33 -49 c-28 -40 -47 -55 -109 -84 -64 -30 -93 -37 -184 -46 l-107 -9
-78 43 c-91 51 -258 111 -358 129 -58 10 -89 24 -163 70 -63 40 -111 63 -155
73 -64 14 -65 14 -104 -12 l-40 -26 -137 76 -137 77 -126 4 c-70 3 -228 1
-352 -3 -225 -8 -225 -8 -323 19 -76 21 -111 36 -152 68 l-54 41 30 66 c22 50
29 80 29 129 0 61 1 64 28 69 15 3 66 18 114 32 69 21 95 35 124 64 l36 37
-17 51 -17 51 -75 0 c-71 0 -77 2 -116 35 -28 24 -72 45 -140 67 -84 28 -109
42 -165 90 -37 32 -70 57 -74 58 -5 0 -8 -27 -8 -60z"/>
</g>
</svg>
